icons/1_Primary/Wealthsimple.svg

<svg width="1024" height="1024" fill="none" xmlns="http://www.w3.org/2000/svg"><g clip-path="url(#a)"><path d="M512 1024c282.77 0 512-229.23 512-512S794.77 0 512 0 0 229.23 0 512s229.23 512 512 512Z" fill="#F9DE81"/><path d="M670.3 351.5v4.3c12.3 2.9 23.1 10.3 30.4 20.7 7.5 13.1 11.1 28.1 10.3 43.2 0 19.8-3 39.6-9 58.5-7 22.1-15.8 43.6-26.2 64.3l-12.2 26.8-60.1-145.9c-2.9-6.9-5.4-14.1-7.4-21.4-1.6-5.6-2.5-11.3-2.9-17-.3-7.3 2.3-14.4 7.2-19.8s11.8-8.5 19.1-8.8v-4.3H438.3v4.3c6.2 1.1 12.1 3.2 17.7 6.1 5.7 3.8 10.4 8.8 14 14.6 6.3 9.8 11.6 20.2 16.1 31l28.3 67.5-51.1 101.1L387.1 400c-2-3.5-3.6-7.2-4.8-11.1-.6-2.8-1-5.6-1.1-8.5 0-5.4 1.9-10.6 5.5-14.6 4.4-4.7 9.9-8.3 16.1-10.3v-4H217.9v4.3c15 4.6 28.6 12.9 39.5 24.3 14.3 16.4 26 35 34.7 54.9l117 259.9h4.8l105.4-208.8L609.4 695h4.8l107.2-231.3c11.4-26.3 25.7-51.3 42.7-74.4 11.1-14.5 25.5-26.1 41.9-34.1V351H670.3v.5Z" fill="#fff"/></g><defs><clipPath id="a"><path fill="#fff" d="M0 0h1024v1024H0z"/></clipPath></defs></svg>

<svg width="1024" height="1024" viewBox="0 0 1024 1024" fill="none" xmlns="http://www.w3.org/2000/svg">
<g clip-path="url(#clip0_2_3897)">
<path d="M512 1024C794.77 1024 1024 794.77 1024 512C1024 229.23 794.77 0 512 0C229.23 0 0 229.23 0 512C0 794.77 229.23 1024 512 1024Z" fill="#F9DE81"/>
<path d="M670.3 351.5V355.8C682.6 358.7 693.4 366.1 700.7 376.5C708.2 389.6 711.8 404.6 711 419.7C711 439.5 708 459.3 702 478.2C695 500.3 686.2 521.8 675.8 542.5L663.6 569.3L603.5 423.4C600.6 416.5 598.1 409.3 596.1 402C594.5 396.4 593.6 390.7 593.2 385C592.9 377.7 595.5 370.6 600.4 365.2C605.3 359.8 612.2 356.7 619.5 356.4V352.1H438.3V356.4C444.5 357.5 450.4 359.6 456 362.5C461.7 366.3 466.4 371.3 470 377.1C476.3 386.9 481.6 397.3 486.1 408.1L514.4 475.6L463.3 576.7L387.1 400C385.1 396.5 383.5 392.8 382.3 388.9C381.7 386.1 381.3 383.3 381.2 380.4C381.2 375 383.1 369.8 386.7 365.8C391.1 361.1 396.6 357.5 402.8 355.5V351.5H217.9V355.8C232.9 360.4 246.5 368.7 257.4 380.1C271.7 396.5 283.4 415.1 292.1 435L409.1 694.9H413.9L519.3 486.1L609.4 695H614.2L721.4 463.7C732.8 437.4 747.1 412.4 764.1 389.3C775.2 374.8 789.6 363.2 806 355.2V351H670.3V351.5Z" fill="white"/>
</g>
<defs>
<clipPath id="clip0_2_3897">
<rect width="1024" height="1024" fill="white"/>
</clipPath>
</defs>
</svg>
